!!!id: EG089
!!!page: 69-72
!!!COM: Anonymous
!!!LYR: Anonymous
!!!PTL@@FR: Chansons Populaires du Canada
!!!OTL@@FR: Quand j'étais chez mon père
!!!PUB: G. E. Desbarats
!!!YEM:
!!!PDT: 1865
!!!SMA:
!!!OMD:
!!!AGN-Laforte:
!!!AGN-type:
!!!AGN-rime:
**kern
*clefG2
*k[b-]
*g:
*M2/4
*
*
=1
8d
16g
16g
8g
8a
=2
4b-
8b-
8r
=3
8dd
16cc
16b-
8cc
8dd
!!LO:PB:g=original
=4
8b-L
8aJ
8g
8r
=5
8d
16e
16f
8g
8a
=6
*M2/8
8gqq
4f
=7
*M2/4
8g
16f
16e
8d
8r
!!LO:PB:g=original
=8
8d
16e
16f
8g
8a
=9
*M2/8
8gqq
8f
8g
=10
*M2/4
4d
8g
8r
==||
*
*
==|
!!!RWG: Key labelled as 'g' but intended to be G Dorian
*-
